1.Normal/chrome/Icons/search-file.svg

<svg xmlns="http://www.w3.org/2000/svg" width="16" height="16" viewBox="0 0 16 16">
   <path
   style="fill:context-fill;fill-opacity:context-fill-opacity"
   d="M 3.5 0 C 2.67157 0 2 0.67157 2 1.5 L 2 5.4160156 C 2.3175 5.2772956 2.6522 5.1702094 3 5.0996094 L 3 1.5 C 3 1.22386 3.22386 1 3.5 1 L 8 1 L 8 4.5 C 8 5.32843 8.6716 6 9.5 6 L 13 6 L 13 14.5 C 13 14.7761 12.910861 15 12.634766 15 L 11.076172 15 C 11.139982 15.380805 11.123616 15.698627 11.103516 16 L 12.5 16 C 13.3284 16 14 15.3284 14 14.5 L 14 5.4140625 C 14 5.0162425 13.841847 4.6348256 13.560547 4.3535156 L 9.6464844 0.43945312 C 9.3651844 0.15815313 8.9837375 0 8.5859375 0 L 3.5 0 z M 9 1.2070312 L 12.792969 5 L 9.5 5 C 9.2239 5 9 4.77614 9 4.5 L 9 1.2070312 z M 4 6 C 1.79086 6 0 7.79086 0 10 C 0 12.2091 1.79086 14 4 14 C 4.92432 14 5.775795 13.686656 6.453125 13.160156 L 9.1445312 15.851562 C 9.3398312 16.046863 9.6562625 16.046862 9.8515625 15.851562 C 10.046862 15.656363 10.046862 15.339831 9.8515625 15.144531 L 7.1601562 12.453125 C 7.6867262 11.775725 8 10.9244 8 10 C 8 7.79086 6.20914 6 4 6 z M 4 7 C 5.65685 7 7 8.3431 7 10 C 7 11.6569 5.65685 13 4 13 C 2.34315 13 1 11.6569 1 10 C 1 8.3431 2.34315 7 4 7 z " />
</svg>

<svg xmlns="http://www.w3.org/2000/svg" width="16" height="16">
  <path style="fill:context-fill;fill-opacity:context-fill-opacity" d="M3.5 0A1.5 1.5 0 0 0 2 1.5v3.916A4.963 4.963 0 0 1 3 5.1V1.5a.5.5 0 0 1 .5-.5H8v3.5A1.5 1.5 0 0 0 9.5 6H13v8.5c0 .276-.09.5-.365.5h-1.559c.064.38.048.699.028 1H12.5a1.5 1.5 0 0 0 1.5-1.5V5.414a1.5 1.5 0 0 0-.44-1.06L9.647.439A1.5 1.5 0 0 0 8.586 0H3.5zM9 1.207 12.793 5H9.5a.5.5 0 0 1-.5-.5V1.207zM4 6a4 4 0 1 0 2.453 7.16l2.692 2.692a.5.5 0 1 0 .707-.707L7.16 12.453A4 4 0 0 0 4 6zm0 1a3 3 0 1 1 0 6 3 3 0 0 1 0-6z"/>
</svg>
